Numix-Light/16/status/indicator-keyboard-Ka-2.svg

<?xml version="1.0" encoding="UTF-8" standalone="no"?>
<svg
   xmlns:dc="http://purl.org/dc/elements/1.1/"
   xmlns:cc="http://creativecommons.org/ns#"
   xmlns:rdf="http://www.w3.org/1999/02/22-rdf-syntax-ns#"
   xmlns:svg="http://www.w3.org/2000/svg"
   xmlns="http://www.w3.org/2000/svg"
   xmlns:sodipodi="http://sodipodi.sourceforge.net/DTD/sodipodi-0.dtd"
   xmlns:inkscape="http://www.inkscape.org/namespaces/inkscape"
   viewBox="0 0 16 16"
   id="svg2"
   version="1.1"
   inkscape:version="0.91 r13725"
   sodipodi:docname="indicator-keyboard-Ka-2.svg">
  <metadata
     id="metadata14">
    <rdf:RDF>
      <cc:Work
         rdf:about="">
        <dc:format>image/svg+xml</dc:format>
        <dc:type
           rdf:resource="http://purl.org/dc/dcmitype/StillImage" />
      </cc:Work>
    </rdf:RDF>
  </metadata>
  <defs
     id="defs12" />
  <sodipodi:namedview
     pagecolor="#ffffff"
     bordercolor="#666666"
     borderopacity="1"
     objecttolerance="10"
     gridtolerance="10"
     guidetolerance="10"
     inkscape:pageopacity="0"
     inkscape:pageshadow="2"
     inkscape:window-width="640"
     inkscape:window-height="480"
     id="namedview10"
     showgrid="false"
     inkscape:zoom="14.75"
     inkscape:cx="8"
     inkscape:cy="8"
     inkscape:window-x="65"
     inkscape:window-y="24"
     inkscape:window-maximized="0"
     inkscape:current-layer="svg2" />
  <path
     style="fill:#353535;fill-opacity:1"
     d="M 1.5996094 0 C 0.71320937 2.9605947e-16 0 0.71320937 0 1.5996094 L 0 14.400391 C 2.9605947e-16 15.286791 0.71320937 16 1.5996094 16 L 14.400391 16 C 15.286791 16 16 15.286791 16 14.400391 L 16 1.5996094 C 16 0.71320937 15.286791 0 14.400391 0 L 1.5996094 0 z M 2.0097656 4.859375 L 2.6210938 4.859375 L 2.6210938 7.765625 C 2.8490938 7.561625 3.1009531 7.3284531 3.3769531 7.0644531 C 3.6589531 6.7944531 3.9350781 6.5239062 4.2050781 6.2539062 C 4.4810781 5.9839063 4.7385156 5.7264687 4.9785156 5.4804688 C 5.2185156 5.2344688 5.4106875 5.027375 5.5546875 4.859375 L 6.2929688 4.859375 C 6.1189687 5.045375 5.9081094 5.2673906 5.6621094 5.5253906 C 5.4161094 5.7773906 5.1549063 6.0385937 4.8789062 6.3085938 C 4.6029062 6.5785938 4.3287344 6.845375 4.0527344 7.109375 C 3.7827344 7.367375 3.5382656 7.5949688 3.3222656 7.7929688 C 3.4962656 7.9009687 3.6828594 8.0352656 3.8808594 8.1972656 C 4.0848594 8.3532656 4.2881875 8.5287031 4.4921875 8.7207031 C 4.7021875 8.9067031 4.9074688 9.1044531 5.1054688 9.3144531 C 5.3094688 9.5184531 5.497875 9.7255469 5.671875 9.9355469 C 5.851875 10.145547 6.0104375 10.348875 6.1484375 10.546875 C 6.2924375 10.744875 6.41 10.927703 6.5 11.095703 L 5.8164062 11.095703 C 5.6124063 10.783703 5.3810469 10.475922 5.1230469 10.169922 C 4.8710469 9.8639217 4.6042656 9.5746875 4.3222656 9.3046875 C 4.0402656 9.0346875 3.7510312 8.7884062 3.4570312 8.5664062 C 3.1690313 8.3444063 2.8910937 8.1597656 2.6210938 8.0097656 L 2.6210938 11.095703 L 2.0097656 11.095703 L 2.0097656 4.859375 z M 8.7832031 6.3359375 C 9.0892031 6.3359375 9.3466406 6.3807031 9.5566406 6.4707031 C 9.7726406 6.5547031 9.9461249 6.6740781 10.078125 6.8300781 C 10.210125 6.9800781 10.307188 7.1591406 10.367188 7.3691406 C 10.427187 7.5791406 10.457031 7.8086875 10.457031 8.0546875 L 10.457031 10.988281 C 10.397031 11.006281 10.309313 11.026781 10.195312 11.050781 C 10.081312 11.068781 9.9488282 11.089281 9.7988281 11.113281 C 9.6488281 11.137281 9.4809219 11.155969 9.2949219 11.167969 C 9.1149219 11.185969 8.9283281 11.195313 8.7363281 11.195312 C 8.4903281 11.195312 8.2627344 11.167281 8.0527344 11.113281 C 7.8487344 11.059281 7.6696719 10.975328 7.5136719 10.861328 C 7.3636719 10.741328 7.2423438 10.592109 7.1523438 10.412109 C 7.0683438 10.226109 7.0273437 10.000328 7.0273438 9.7363281 C 7.0273438 9.4843281 7.075875 9.2698437 7.171875 9.0898438 C 7.267875 8.9098438 7.4021719 8.7624375 7.5761719 8.6484375 C 7.7501719 8.5284375 7.9572656 8.4407187 8.1972656 8.3867188 C 8.4372656 8.3327188 8.6984688 8.3066406 8.9804688 8.3066406 C 9.0644687 8.3066406 9.1521875 8.3122187 9.2421875 8.3242188 C 9.3381875 8.3302187 9.4277188 8.341375 9.5117188 8.359375 C 9.6017188 8.371375 9.6763281 8.3862969 9.7363281 8.4042969 C 9.8023281 8.4162969 9.8470938 8.4294063 9.8710938 8.4414062 L 9.8710938 8.1523438 C 9.8710938 7.9903437 9.8599375 7.8355469 9.8359375 7.6855469 C 9.8119375 7.5295469 9.7578281 7.3914844 9.6738281 7.2714844 C 9.5958281 7.1454844 9.4820313 7.0466094 9.3320312 6.9746094 C 9.1880313 6.8966094 8.9958594 6.8574219 8.7558594 6.8574219 C 8.4138594 6.8574219 8.1582344 6.8816875 7.9902344 6.9296875 C 7.8222344 6.9776875 7.6990938 7.016875 7.6210938 7.046875 L 7.5410156 6.5332031 C 7.6430156 6.4852031 7.7978125 6.4404375 8.0078125 6.3984375 C 8.2238125 6.3564375 8.4832031 6.3359375 8.7832031 6.3359375 z M 12.664062 8.7539062 C 13.057962 8.7539062 13.353834 8.851875 13.552734 9.046875 C 13.751634 9.237975 13.851563 9.5044563 13.851562 9.8476562 C 13.851562 9.9997563 13.824131 10.14475 13.769531 10.28125 C 13.714931 10.41385 13.640475 10.543169 13.546875 10.667969 C 13.457175 10.792769 13.353328 10.912297 13.236328 11.029297 C 13.119328 11.146297 12.999806 11.263859 12.878906 11.380859 C 12.777506 11.478359 12.679531 11.578288 12.582031 11.679688 C 12.488431 11.777188 12.402219 11.877116 12.324219 11.978516 C 12.250119 12.076016 12.189378 12.172031 12.142578 12.269531 C 12.099678 12.363131 12.078125 12.457181 12.078125 12.550781 L 12.078125 12.5625 L 13.990234 12.5625 L 13.990234 12.896484 L 11.65625 12.896484 C 11.65625 12.888684 11.654324 12.874969 11.650391 12.855469 L 11.650391 12.755859 C 11.650391 12.572559 11.6837 12.402094 11.75 12.246094 C 11.8163 12.086194 11.900553 11.937275 12.001953 11.796875 C 12.107253 11.656475 12.222856 11.525197 12.347656 11.404297 C 12.476356 11.283397 12.599797 11.165834 12.716797 11.052734 C 12.814297 10.959134 12.904434 10.869003 12.990234 10.783203 C 13.079934 10.693503 13.158309 10.603366 13.224609 10.509766 C 13.290909 10.416166 13.343812 10.316238 13.382812 10.210938 C 13.421812 10.105638 13.441406 9.9900344 13.441406 9.8652344 C 13.441406 9.5922344 13.36695 9.39825 13.21875 9.28125 C 13.07445 9.16035 12.892222 9.0996094 12.669922 9.0996094 C 12.545122 9.0996094 12.433437 9.1152844 12.335938 9.1464844 C 12.238438 9.1776844 12.152225 9.2149125 12.078125 9.2578125 C 12.007925 9.2968125 11.947184 9.3379594 11.896484 9.3808594 C 11.845784 9.4237594 11.808556 9.4570688 11.785156 9.4804688 L 11.585938 9.2167969 C 11.609337 9.1894969 11.650485 9.1503094 11.708984 9.0996094 C 11.771384 9.0450094 11.8478 8.9921062 11.9375 8.9414062 C 12.0311 8.8907063 12.138866 8.8476 12.259766 8.8125 C 12.380666 8.7735 12.515863 8.7539063 12.664062 8.7539062 z M 8.9628906 8.8105469 C 8.8188906 8.8105469 8.6677188 8.8217031 8.5117188 8.8457031 C 8.3557187 8.8637031 8.2120781 8.9084687 8.0800781 8.9804688 C 7.9480781 9.0464688 7.8398594 9.1397656 7.7558594 9.2597656 C 7.6718594 9.3797656 7.6308594 9.5383281 7.6308594 9.7363281 C 7.6308594 9.9103281 7.6569375 10.057734 7.7109375 10.177734 C 7.7709375 10.297734 7.8530781 10.394797 7.9550781 10.466797 C 8.0630781 10.538797 8.1880313 10.592906 8.3320312 10.628906 C 8.4820312 10.658906 8.6499375 10.673828 8.8359375 10.673828 C 9.0639375 10.673828 9.2616875 10.666297 9.4296875 10.654297 C 9.6036875 10.636297 9.7510938 10.615797 9.8710938 10.591797 L 9.8710938 8.953125 C 9.8050937 8.923125 9.7006406 8.8932813 9.5566406 8.8632812 C 9.4126406 8.8272812 9.2148906 8.8105469 8.9628906 8.8105469 z "
     id="path4" />
</svg>

<svg xmlns="http://www.w3.org/2000/svg" viewBox="0 0 16 16">
 <path d="m 1.6 0 c -0.886 0 -1.6 0.713 -1.6 1.6 l 0 12.801 c 0 0.886 0.713 1.6 1.6 1.6 l 12.801 0 c 0.886 0 1.6 -0.713 1.6 -1.6 l 0 -12.801 c 0 -0.886 -0.713 -1.6 -1.6 -1.6 l -12.801 0 z m 0.41 4.859 l 0.611 0 l 0 2.906 c 0.228 -0.204 0.48 -0.437 0.756 -0.701 c 0.282 -0.27 0.558 -0.541 0.828 -0.811 c 0.276 -0.27 0.533 -0.527 0.773 -0.773 c 0.24 -0.246 0.432 -0.453 0.576 -0.621 l 0.738 0 c -0.174 0.186 -0.385 0.408 -0.631 0.666 c -0.246 0.252 -0.507 0.513 -0.783 0.783 c -0.276 0.27 -0.55 0.537 -0.826 0.801 c -0.27 0.258 -0.514 0.486 -0.73 0.684 c 0.174 0.108 0.361 0.242 0.559 0.404 c 0.204 0.156 0.407 0.331 0.611 0.523 c 0.21 0.186 0.415 0.384 0.613 0.594 c 0.204 0.204 0.392 0.411 0.566 0.621 c 0.18 0.21 0.339 0.413 0.477 0.611 c 0.144 0.198 0.262 0.381 0.352 0.549 l -0.684 0 c -0.204 -0.312 -0.435 -0.62 -0.693 -0.926 c -0.252 -0.306 -0.519 -0.595 -0.801 -0.865 c -0.282 -0.27 -0.571 -0.516 -0.865 -0.738 c -0.288 -0.222 -0.566 -0.407 -0.836 -0.557 l 0 3.086 l -0.611 0 l 0 -6.236 z m 6.773 1.477 c 0.306 0 0.563 0.045 0.773 0.135 c 0.216 0.084 0.389 0.203 0.521 0.359 c 0.132 0.15 0.229 0.329 0.289 0.539 c 0.06 0.21 0.09 0.44 0.09 0.686 l 0 2.934 c -0.06 0.018 -0.148 0.038 -0.262 0.063 c -0.114 0.018 -0.246 0.038 -0.396 0.063 c -0.15 0.024 -0.318 0.043 -0.504 0.055 c -0.18 0.018 -0.367 0.027 -0.559 0.027 c -0.246 0 -0.474 -0.028 -0.684 -0.082 c -0.204 -0.054 -0.383 -0.138 -0.539 -0.252 c -0.15 -0.12 -0.271 -0.269 -0.361 -0.449 c -0.084 -0.186 -0.125 -0.412 -0.125 -0.676 c 0 -0.252 0.049 -0.466 0.145 -0.646 c 0.096 -0.18 0.23 -0.327 0.404 -0.441 c 0.174 -0.12 0.381 -0.208 0.621 -0.262 c 0.24 -0.054 0.501 -0.08 0.783 -0.08 c 0.084 0 0.172 0.006 0.262 0.018 c 0.096 0.006 0.186 0.017 0.27 0.035 c 0.09 0.012 0.165 0.027 0.225 0.045 c 0.066 0.012 0.111 0.025 0.135 0.037 l 0 -0.289 c 0 -0.162 -0.011 -0.317 -0.035 -0.467 c -0.024 -0.156 -0.078 -0.294 -0.162 -0.414 c -0.078 -0.126 -0.192 -0.225 -0.342 -0.297 c -0.144 -0.078 -0.336 -0.117 -0.576 -0.117 c -0.342 0 -0.598 0.024 -0.766 0.072 c -0.168 0.048 -0.291 0.087 -0.369 0.117 l -0.08 -0.514 c 0.102 -0.048 0.257 -0.093 0.467 -0.135 c 0.216 -0.042 0.475 -0.063 0.775 -0.063 z m 3.881 2.418 c 0.394 0 0.69 0.098 0.889 0.293 c 0.199 0.191 0.299 0.458 0.299 0.801 c 0 0.152 -0.027 0.297 -0.082 0.434 c -0.055 0.133 -0.129 0.262 -0.223 0.387 c -0.09 0.125 -0.194 0.244 -0.311 0.361 c -0.117 0.117 -0.237 0.235 -0.357 0.352 c -0.101 0.098 -0.199 0.197 -0.297 0.299 c -0.094 0.098 -0.18 0.197 -0.258 0.299 c -0.074 0.097 -0.135 0.194 -0.182 0.291 c -0.043 0.094 -0.064 0.188 -0.064 0.281 l 0 0.012 l 1.912 0 l 0 0.334 l -2.334 0 c 0 -0.008 -0.002 -0.022 -0.006 -0.041 l 0 -0.1 c 0 -0.183 0.033 -0.354 0.1 -0.51 c 0.066 -0.16 0.151 -0.309 0.252 -0.449 c 0.105 -0.14 0.221 -0.272 0.346 -0.393 c 0.129 -0.121 0.252 -0.238 0.369 -0.352 c 0.098 -0.094 0.188 -0.184 0.273 -0.27 c 0.09 -0.09 0.168 -0.18 0.234 -0.273 c 0.066 -0.094 0.119 -0.194 0.158 -0.299 c 0.039 -0.105 0.059 -0.221 0.059 -0.346 c 0 -0.273 -0.074 -0.467 -0.223 -0.584 c -0.144 -0.121 -0.327 -0.182 -0.549 -0.182 c -0.125 0 -0.236 0.016 -0.334 0.047 c -0.098 0.031 -0.184 0.068 -0.258 0.111 c -0.07 0.039 -0.131 0.08 -0.182 0.123 c -0.051 0.043 -0.088 0.076 -0.111 0.1 l -0.199 -0.264 c 0.023 -0.027 0.065 -0.066 0.123 -0.117 c 0.062 -0.055 0.139 -0.108 0.229 -0.158 c 0.094 -0.051 0.201 -0.094 0.322 -0.129 c 0.121 -0.039 0.256 -0.059 0.404 -0.059 z m -3.701 0.057 c -0.144 0 -0.295 0.011 -0.451 0.035 c -0.156 0.018 -0.3 0.063 -0.432 0.135 c -0.132 0.066 -0.24 0.159 -0.324 0.279 c -0.084 0.12 -0.125 0.279 -0.125 0.477 c 0 0.174 0.026 0.321 0.08 0.441 c 0.06 0.12 0.142 0.217 0.244 0.289 c 0.108 0.072 0.233 0.126 0.377 0.162 c 0.15 0.03 0.318 0.045 0.504 0.045 c 0.228 0 0.426 -0.008 0.594 -0.02 c 0.174 -0.018 0.321 -0.038 0.441 -0.063 l 0 -1.639 c -0.066 -0.03 -0.17 -0.06 -0.314 -0.09 c -0.144 -0.036 -0.342 -0.053 -0.594 -0.053 z" style="fill:#353535;fill-opacity:1"/>
</svg>
